X:1
T: Easter Skene
C:Alexander Walker
R:Strathspey
Q: 128
K:F
M:4/4
L:1/16
A2|FF3 A3F D3F C3A,|FG3 A3F G3G, G,3C|FF3 A3F D3F C3A,|B,3D C3E F6 C2|
FF3 A3F D3F C3A,|B,3D A,3F G,G3 G3B|AF3 c3A BG3 g3f|e3c d3e f4 -f2c2|
f3a g3a fc3 f3d|cA3 A3G FD3 D3c|A3f c3f A3f cA3|Gg3 g3f g4 -g3e|
f3a g3a fc3 f3d|cA3 A3G FD3 D3c|f3g agfe fedc df3|cF3 A3G F4-F2|
